source/img/icon-burger.svg

<svg version="1.1" id="Layer_1" xmlns="http://www.w3.org/2000/svg" xmlns:xlink="http://www.w3.org/1999/xlink" x="0px" y="0px" width="76.166px" height="68.959px" viewBox="0 0 76.166 68.959" enable-background="new 0 0 76.166 68.959" xml:space="preserve">
  <g>
    <path d="M71.914,46.042H4.252C1.914,46.042,0,47.955,0,50.294v3.454C0,56.086,1.914,58,4.252,58h0.956v1.037 c0,5.457,4.464,9.922,9.921,9.922h45.908c5.456,0,9.921-4.465,9.921-9.922V58h0.956c2.339,0,4.252-1.914,4.252-4.252v-3.454 C76.166,47.955,74.253,46.042,71.914,46.042z M67.958,59.037c0,3.815-3.104,6.922-6.921,6.922H15.129 c-3.816,0-6.921-3.104-6.921-6.922V58h59.75V59.037z M73.166,53.748c0,0.679-0.573,1.252-1.252,1.252H4.252 C3.573,55,3,54.427,3,53.748v-3.454c0-0.679,0.573-1.252,1.252-1.252h67.662c0.679,0,1.252,0.573,1.252,1.252V53.748z"/>
    <polygon points="16.162,37.856 21.635,41.856 27.112,37.856 32.591,41.856 38.069,37.856 43.548,41.856 49.026,37.856 54.505,41.856 59.985,37.856 65.474,41.856 71.842,37.212 70.074,34.788 65.474,38.144 59.985,34.144 54.505,38.144 49.026,34.143 43.548,38.144 38.069,34.143 32.591,38.144 27.112,34.143 21.636,38.144 16.163,34.142 10.686,38.144 6.093,34.789 4.323,37.211 10.686,41.856 	"/>
    <path d="M70.888,31.094c0.041-0.61,0.055-2.616,0.037-3C70.242,12.476,55.804,0,38.083,0C20.363,0,5.924,12.476,5.241,28.094 c-0.017,0.384-0.004,2.389,0.039,3H70.888z M38.083,3c16.031,0,29.15,11.154,29.842,25.094H8.241C8.933,14.154,22.051,3,38.083,3z"/>
    <circle cx="38.083" cy="15.042" r="2"/>
    <circle cx="30.083" cy="10.083" r="2"/>
    <circle cx="46.083" cy="10.083" r="2"/>
  </g>
</svg>

<?xml version="1.0" encoding="UTF-8"?>
<svg width="77px" height="69px" viewBox="0 0 77 69" version="1.1" xmlns="http://www.w3.org/2000/svg" xmlns:xlink="http://www.w3.org/1999/xlink">
    <!-- Generator: Sketch 58 (84663) - https://sketch.com -->
    <title>icon-burger</title>
    <desc>Created with Sketch.</desc>
    <g id="Page-1" stroke="none" stroke-width="1" fill="none" fill-rule="evenodd">
        <g id="icon-burger" fill="#81B3D2" fill-rule="nonzero">
            <path d="M71.914,46.042 L4.252,46.042 C1.914,46.042 0,47.955 0,50.294 L0,53.748 C0,56.086 1.914,58 4.252,58 L5.208,58 L5.208,59.037 C5.208,64.494 9.672,68.959 15.129,68.959 L61.037,68.959 C66.493,68.959 70.958,64.494 70.958,59.037 L70.958,58 L71.914,58 C74.253,58 76.166,56.086 76.166,53.748 L76.166,50.294 C76.166,47.955 74.253,46.042 71.914,46.042 Z M67.958,59.037 C67.958,62.852 64.854,65.959 61.037,65.959 L15.129,65.959 C11.313,65.959 8.208,62.855 8.208,59.037 L8.208,58 L67.958,58 L67.958,59.037 Z M73.166,53.748 C73.166,54.427 72.593,55 71.914,55 L4.252,55 C3.573,55 3,54.427 3,53.748 L3,50.294 C3,49.615 3.573,49.042 4.252,49.042 L71.914,49.042 C72.593,49.042 73.166,49.615 73.166,50.294 L73.166,53.748 Z" id="Shape"></path>
            <polygon id="Path" points="16.162 37.856 21.635 41.856 27.112 37.856 32.591 41.856 38.069 37.856 43.548 41.856 49.026 37.856 54.505 41.856 59.985 37.856 65.474 41.856 71.842 37.212 70.074 34.788 65.474 38.144 59.985 34.144 54.505 38.144 49.026 34.143 43.548 38.144 38.069 34.143 32.591 38.144 27.112 34.143 21.636 38.144 16.163 34.142 10.686 38.144 6.093 34.789 4.323 37.211 10.686 41.856"></polygon>
            <path d="M70.888,31.094 C70.929,30.484 70.943,28.478 70.925,28.094 C70.242,12.476 55.804,0 38.083,0 C20.363,0 5.924,12.476 5.241,28.094 C5.224,28.478 5.237,30.483 5.28,31.094 L70.888,31.094 Z M38.083,3 C54.114,3 67.233,14.154 67.925,28.094 L8.241,28.094 C8.933,14.154 22.051,3 38.083,3 Z" id="Shape"></path>
            <circle id="Oval" cx="38.083" cy="15.042" r="2"></circle>
            <circle id="Oval" cx="30.083" cy="10.083" r="2"></circle>
            <circle id="Oval" cx="46.083" cy="10.083" r="2"></circle>
        </g>
    </g>
</svg>
